teeny/solid/instagram.svg

<svg width="15" height="15" viewBox="0 0 15 15" fill="none" xmlns="http://www.w3.org/2000/svg">
<path d="M7.5 5C6.11929 5 5 6.11929 5 7.5C5 8.88071 6.11929 10 7.5 10C8.88071 10 10 8.88071 10 7.5C10 6.11929 8.88071 5 7.5 5Z" fill="black"/>
<path fill-rule="evenodd" clip-rule="evenodd" d="M4.5 0C2.01472 0 0 2.01472 0 4.5V10.5C0 12.9853 2.01472 15 4.5 15H10.5C12.9853 15 15 12.9853 15 10.5V4.5C15 2.01472 12.9853 0 10.5 0H4.5ZM4 7.5C4 5.567 5.567 4 7.5 4C9.433 4 11 5.567 11 7.5C11 9.433 9.433 11 7.5 11C5.567 11 4 9.433 4 7.5ZM11 4H12V3H11V4Z" fill="black"/>
</svg>

<svg viewBox="0 0 15 15" xmlns="http://www.w3.org/2000/svg"><g><path d="M7.5 5C6.11 5 5 6.11 5 7.5 5 8.88 6.11 10 7.5 10 8.88 10 10 8.88 10 7.5 10 6.11 8.88 5 7.5 5Z"/><path fill-rule="evenodd" d="M4.5 0C2.01 0 0 2.01 0 4.5v6C0 12.98 2.01 15 4.5 15h6c2.48 0 4.5-2.02 4.5-4.5v-6C15 2.01 12.98 0 10.5 0h-6ZM4 7.5C4 5.56 5.56 4 7.5 4 9.43 4 11 5.56 11 7.5 11 9.43 9.43 11 7.5 11 5.56 11 4 9.43 4 7.5ZM11 4h1V3h-1v1Z"/></g></svg>
